X: 6
T: DONALD BLUE
S: Simon Mullay
R: reel
B: Haand me doon da fiddle, 1979
Z: 2012 John Chambers <jc:trillian.mit.edu>
M: C
L: 1/8
K: D
|:\
vdu(BAF) vAFAB | vdu(BAF) vE2uD2 | vdu(BAF) vAu(FA2) |
[1 vBu(BBA) vB2ue2 :|[2 vBu(BBA) vB2ud2 |: vABde vfu(afd) |
vfu(afd) veu(dB2) | vABde vfu(afd) | vBu(BBA) vB2ud2 :|
%%begintext align
Dis t\"un cam fae Papa Stour whaur it wis caaed Donald Beu efter a
teacher o' dat name.  Da only idder place it haes been fun wis in
Fetlar, but it seems at dey wir folk at flit frae Papa to Fetlar a
lang time ago so dey laikly took him wi dem.
%%endtext

%%sep 2 1 500
%%sep 1 1 500

